Papirus/64x64/mimetypes/image-svg+xml-compressed.svg

<svg xmlns="http://www.w3.org/2000/svg" width="64" height="64" version="1">
 <path style="opacity:0.2" d="m 58,54.3333 v -42.666 c 0,-1.4777 -1.16,-2.667 -2.6,-2.667 H 8.6 C 7.1596,9.0003 6,10.1896 6,11.667 V 54.333 C 6,55.811 7.1596,57 8.6,57 h 46.8 c 1.44,0 2.6,-1.189 2.6,-2.667 z"/>
 <path fill="#bf9a66" d="m58 53.333v-42.666c0-1.4777-1.16-2.667-2.6-2.667h-46.8c-1.4404 0-2.6 1.1893-2.6 2.6667v42.666c0 1.478 1.1596 2.667 2.6 2.667h46.8c1.44 0 2.6-1.189 2.6-2.667z"/>
 <path style="opacity:0.2" d="m 16,28 a 5,5 0 0 0 -5,5 5,5 0 0 0 5,5 5,5 0 0 0 2.386719,-0.613281 l 5.130859,6.412109 A 5,5 0 0 0 23,46 a 5,5 0 0 0 5,5 5,5 0 0 0 4.757812,-3.46875 l 9.890626,-2.082031 A 5,5 0 0 0 47,48 a 5,5 0 0 0 5,-5 5,5 0 0 0 -5,-5 5,5 0 0 0 -4.974609,4.513672 l -9.271485,1.953125 A 5,5 0 0 0 28,41 5,5 0 0 0 25.611328,41.613281 L 20.482422,35.201172 A 5,5 0 0 0 21,33 5,5 0 0 0 16,28 Z"/>
 <path style="fill:#ffffff" d="m 16,27 a 5,5 0 0 0 -5,5 5,5 0 0 0 5,5 5,5 0 0 0 2.386719,-0.613281 l 5.130859,6.412109 A 5,5 0 0 0 23,45 a 5,5 0 0 0 5,5 5,5 0 0 0 4.757812,-3.46875 l 9.890626,-2.082031 A 5,5 0 0 0 47,47 a 5,5 0 0 0 5,-5 5,5 0 0 0 -5,-5 5,5 0 0 0 -4.974609,4.513672 l -9.271485,1.953125 A 5,5 0 0 0 28,40 5,5 0 0 0 25.611328,40.613281 L 20.482422,34.201172 A 5,5 0 0 0 21,32 5,5 0 0 0 16,27 Z"/>
 <path style="fill:#ffffff;opacity:0.2" d="M 8.5996094 8 C 7.1592094 8 6 9.1886156 6 10.666016 L 6 11.667969 C 6 10.190569 7.1592094 9 8.5996094 9 L 55.400391 9 C 56.840391 9 58 10.190269 58 11.667969 L 58 10.667969 C 58 9.1902687 56.840391 8 55.400391 8 L 8.5996094 8 z"/>
 <path style="opacity:0.2" d="m 32,23 c -2.210666,0 -4,1.8 -4,4 v 8 c 0,2.2 1.79,4 4,4 2.21,0 4,-1.8 4,-4 v -8 c 0,-2.2 -1.789334,-4 -4,-4 z m 0,2 c 1.104,0 2,0.8 2,2 0,0.999998 -0.896,2 -2,2 -1.104,0 -2,-1.000002 -2,-2 0,-1.2 0.896,-2 2,-2 z m 0,6 c 1.10457,0 2,0.89543 2,2 v 2 c 0,1.10457 -0.89543,2 -2,2 -1.10457,0 -2,-0.89543 -2,-2 v -2 c 0,-1.10457 0.89543,-2 2,-2 z"/>
 <path style="opacity:0.2" d="M 30 8 L 30 22 C 30 23.1 30.895 24 32 24 C 33.105 24 34 23.1 34 22 L 34 8 L 30 8 z"/>
 <path style="opacity:0.2" d="M 32 8 L 32 9 L 33 9 L 33 8 L 32 8 z M 32 9 L 31 9 L 31 10 L 32 10 L 32 9 z M 32 10 L 32 11 L 33 11 L 33 10 L 32 10 z M 32 11 L 31 11 L 31 12 L 32 12 L 32 11 z M 32 12 L 32 13 L 33 13 L 33 12 L 32 12 z M 32 13 L 31 13 L 31 14 L 32 14 L 32 13 z M 32 14 L 32 15 L 33 15 L 33 14 L 32 14 z"/>
 <path style="fill:#dddddd" d="M 31 8 L 31 9 L 32 9 L 32 8 L 31 8 z M 31 10 L 31 11 L 32 11 L 32 10 L 31 10 z M 31 12 L 31 13 L 32 13 L 32 12 L 31 12 z M 31 14 L 31 15 L 32 15 L 32 14 L 31 14 z"/>
 <path style="opacity:0.2" d="m 31,16 h 1 c 0.04125,-0.367529 0,-1 0,-1 h -1 z m 1,0 v 1 h 1 v -1 z m 0,1 h -1 v 1 h 1 z m 0,1 v 1 h 1 v -1 z m 0,1 h -1 v 1 h 1 z m 0,1 v 1 h 1 v -1 z m 0,1 h -1 v 1 h 1 z m 0,1 v 1 h 1 v -1 z m 0,1 h -1 c -0.1561,1.390912 1,1.390912 1,0 z"/>
 <path style="fill:#dddddd" d="m 31,16 v 1 h 1 v -1 z m 0,2 v 1 h 1 v -1 z m 0,2 v 1 h 1 v -1 z m 0,2 v 1 h 1 v -1 z"/>
 <path style="fill:#ffffff" d="m 32,22 c -2.210666,0 -4,1.8 -4,4 v 8 c 0,2.2 1.79,4 4,4 2.21,0 4,-1.8 4,-4 v -8 c 0,-2.2 -1.789334,-4 -4,-4 z m 0,2 c 1.104,0 2,0.8 2,2 0,0.999998 -0.896,2 -2,2 -1.104,0 -2,-1.000002 -2,-2 0,-1.2 0.896,-2 2,-2 z m 0,6 c 1.10457,0 2,0.89543 2,2 v 2 c 0,1.10457 -0.89543,2 -2,2 -1.10457,0 -2,-0.89543 -2,-2 v -2 c 0,-1.10457 0.89543,-2 2,-2 z"/>
</svg>

<svg xmlns="http://www.w3.org/2000/svg" width="64" height="64" version="1">
 <path style="opacity:0.2" d="m 58,54.3333 v -42.666 c 0,-1.4777 -1.16,-2.667 -2.6,-2.667 H 8.6 C 7.1596,9.0003 6,10.1896 6,11.667 V 54.333 C 6,55.811 7.1596,57 8.6,57 h 46.8 c 1.44,0 2.6,-1.189 2.6,-2.667 z"/>
 <path fill="#a47a4a" d="m58 53.333v-42.666c0-1.4777-1.16-2.667-2.6-2.667h-46.8c-1.4404 0-2.6 1.1893-2.6 2.6667v42.666c0 1.478 1.1596 2.667 2.6 2.667h46.8c1.44 0 2.6-1.189 2.6-2.667z"/>
 <path style="fill:none;stroke:#ffffff;stroke-width:3" d="M 16,32 28,45 47,41"/>
 <circle cx="16" cy="33" r="5" style="opacity:0.2"/>
 <circle style="fill:#3f3f3f" cx="16" cy="32" r="5"/>
 <circle style="opacity:0.2" cx="28" cy="46" r="5"/>
 <circle cx="28" cy="45" r="5" style="fill:#3f3f3f"/>
 <circle cx="47" cy="42" r="5" style="opacity:0.2"/>
 <circle style="fill:#3f3f3f" cx="47" cy="41" r="5"/>
 <path style="opacity:0.2" d="m 32,23 c -2.210666,0 -4,1.8 -4,4 l 0,8 c 0,2.2 1.79,4 4,4 2.21,0 4,-1.8 4,-4 l 0,-8 c 0,-2.2 -1.789334,-4 -4,-4 z m 0,2 c 1.104,0 2,0.8 2,2 0,0.999998 -0.896,2 -2,2 -1.104,0 -2,-1.000002 -2,-2 0,-1.2 0.896,-2 2,-2 z m 0,6 c 1.10457,0 2,0.89543 2,2 l 0,2 c 0,1.10457 -0.89543,2 -2,2 -1.10457,0 -2,-0.89543 -2,-2 l 0,-2 c 0,-1.10457 0.89543,-2 2,-2 z"/>
 <path style="opacity:0.2" d="m 30,8 0,14 c 0,1.1 0.895,2 2,2 1.105,0 2,-0.9 2,-2 L 34,8 30,8 Z"/>
 <path style="opacity:0.2" d="m 32,8 0,1 1,0 0,-1 -1,0 z m 0,1 -1,0 0,1 1,0 0,-1 z m 0,1 0,1 1,0 0,-1 -1,0 z m 0,1 -1,0 0,1 1,0 0,-1 z m 0,1 0,1 1,0 0,-1 -1,0 z m 0,1 -1,0 0,1 1,0 0,-1 z m 0,1 0,1 1,0 0,-1 -1,0 z"/>
 <path style="fill:#dddddd" d="m 31,8 0,1 1,0 0,-1 -1,0 z m 0,2 0,1 1,0 0,-1 -1,0 z m 0,2 0,1 1,0 0,-1 -1,0 z m 0,2 0,1 1,0 0,-1 -1,0 z"/>
 <path style="opacity:0.2" d="m 31,16 1,0 c 0.04125,-0.367529 0,-1 0,-1 l -1,0 z m 1,0 0,1 1,0 0,-1 z m 0,1 -1,0 0,1 1,0 z m 0,1 0,1 1,0 0,-1 z m 0,1 -1,0 0,1 1,0 z m 0,1 0,1 1,0 0,-1 z m 0,1 -1,0 0,1 1,0 z m 0,1 0,1 1,0 0,-1 z m 0,1 -1,0 c -0.1561,1.390912 1,1.390912 1,0 z"/>
 <path style="fill:#dddddd" d="m 31,16 0,1 1,0 0,-1 z m 0,2 0,1 1,0 0,-1 z m 0,2 0,1 1,0 0,-1 z m 0,2 0,1 1,0 0,-1 z"/>
 <path style="fill:#ffffff" d="m 32,22 c -2.210666,0 -4,1.8 -4,4 l 0,8 c 0,2.2 1.79,4 4,4 2.21,0 4,-1.8 4,-4 l 0,-8 c 0,-2.2 -1.789334,-4 -4,-4 z m 0,2 c 1.104,0 2,0.8 2,2 0,0.999998 -0.896,2 -2,2 -1.104,0 -2,-1.000002 -2,-2 0,-1.2 0.896,-2 2,-2 z m 0,6 c 1.10457,0 2,0.89543 2,2 l 0,2 c 0,1.10457 -0.89543,2 -2,2 -1.10457,0 -2,-0.89543 -2,-2 l 0,-2 c 0,-1.10457 0.89543,-2 2,-2 z"/>
 <path style="fill:#ffffff;opacity:0.1" d="M 8.5996094 8 C 7.1592094 8 6 9.1886156 6 10.666016 L 6 11.667969 C 6 10.190569 7.1592094 9 8.5996094 9 L 55.400391 9 C 56.840391 9 58 10.190269 58 11.667969 L 58 10.667969 C 58 9.1902687 56.840391 8 55.400391 8 L 8.5996094 8 z"/>
</svg>
